X:1
T:52
L:1/8
M:3/4
K:C
V:1 treble nm="Piano" snm="Pno."
V:1
 cA G3 G | c3 A G2 | E c3 EA | G4 z2 | GE D3 D | G3 E D2 | A, G3 ED | C4 z2 | A,E D3 E | %9
 A,E D2 E2 | GA GC DE | D4 z2 | E c3 EA | A, G3 ED | C2 c3 A | G6 |] %16

